public/img/workshop-arrow-2.svg

<svg width="589" height="140" viewBox="0 0 589 140" fill="none" xmlns="http://www.w3.org/2000/svg">
<path d="M576 139.5L575.732 127.956L585.863 133.496L576 139.5ZM1 116C0.219131 115.375 0.219167 115.375 0.219205 115.375C0.219221 115.375 0.219261 115.375 0.219291 115.375C0.219353 115.375 0.219422 115.375 0.219499 115.375C0.219652 115.375 0.219838 115.374 0.220054 115.374C0.220487 115.374 0.221046 115.373 0.22173 115.372C0.223099 115.37 0.224971 115.368 0.227346 115.365C0.232097 115.359 0.238864 115.351 0.247657 115.34C0.265243 115.318 0.290933 115.287 0.324808 115.246C0.392559 115.163 0.493048 115.043 0.626922 114.885C0.894669 114.569 1.29595 114.105 1.83592 113.504L3.32305 114.842C2.7963 115.427 2.40784 115.877 2.15252 116.178C2.02487 116.328 1.93049 116.442 1.86877 116.517C1.8379 116.554 1.8152 116.582 1.80058 116.6C1.79326 116.609 1.78797 116.616 1.78469 116.62C1.78305 116.622 1.78191 116.623 1.78128 116.624C1.78096 116.625 1.78077 116.625 1.7807 116.625C1.78066 116.625 1.78066 116.625 1.78069 116.625C1.7807 116.625 1.78073 116.625 1.78076 116.625C1.78077 116.625 1.7808 116.625 1.78081 116.625C1.78084 116.625 1.78087 116.625 1 116ZM5.33947 109.801C6.37276 108.754 7.56916 107.577 8.93472 106.282L10.3107 107.733C8.96134 109.013 7.78064 110.175 6.76261 111.206L5.33947 109.801ZM12.6513 102.857C13.8293 101.801 15.0962 100.691 16.4544 99.532L17.7526 101.053C16.407 102.202 15.1524 103.301 13.9865 104.346L12.6513 102.857ZM20.3491 96.2843C21.6152 95.2521 22.9456 94.1894 24.3415 93.0992L25.5725 94.6755C24.1877 95.757 22.8682 96.811 21.6128 97.8344L20.3491 96.2843ZM28.2852 90.0801C29.5904 89.1004 30.945 88.1023 32.3498 87.0876L33.5209 88.7089C32.126 89.7164 30.7812 90.7072 29.4859 91.6796L28.2852 90.0801ZM36.5047 84.1426C37.8342 83.2177 39.2037 82.2812 40.6138 81.3344L41.7287 82.9949C40.3278 83.9355 38.9674 84.8657 37.6469 85.7844L36.5047 84.1426ZM44.883 78.5186C46.2451 77.636 47.6417 76.7458 49.073 75.8491L50.1348 77.5439C48.7122 78.4352 47.3242 79.3199 45.9706 80.1971L44.883 78.5186ZM53.4152 73.1747C54.8103 72.3299 56.2359 71.4803 57.6923 70.6267L58.7036 72.3522C57.2555 73.2009 55.8381 74.0456 54.4512 74.8855L53.4152 73.1747ZM62.119 68.0747C63.5368 67.2707 64.9817 66.4639 66.4541 65.655L67.4171 67.4079C65.9526 68.2125 64.5155 69.0149 63.1055 69.8144L62.119 68.0747ZM70.9538 63.2226C72.395 62.4561 73.8608 61.6882 75.3515 60.9196L76.268 62.6972C74.7849 63.4619 73.3267 64.2258 71.893 64.9884L70.9538 63.2226ZM79.8708 58.6259C81.3518 57.886 82.856 57.146 84.3836 56.4062L85.2553 58.2062C83.7351 58.9424 82.2382 59.6789 80.7646 60.4151L79.8708 58.6259ZM88.9084 54.2486C90.4345 53.532 91.9828 52.8162 93.5535 52.1015L94.3818 53.922C92.8183 54.6333 91.2772 55.3458 89.7584 56.0589L88.9084 54.2486ZM98.0728 50.0763C99.5994 49.4026 101.146 48.7302 102.714 48.0596L103.5 49.8984C101.94 50.566 100.4 51.2353 98.8804 51.9061L98.0728 50.0763ZM107.372 46.097C108.892 45.4665 110.431 44.8379 111.988 44.2116L112.734 46.0671C111.184 46.6908 109.652 47.3166 108.139 47.9444L107.372 46.097ZM116.714 42.3397C118.259 41.7375 119.821 41.1378 121.401 40.5407L122.108 42.4115C120.535 43.0061 118.979 43.6034 117.441 44.2031L116.714 42.3397ZM126.087 38.7969C127.666 38.2183 129.261 37.6427 130.874 37.0701L131.543 38.9549C129.937 39.5252 128.347 40.0986 126.775 40.6748L126.087 38.7969ZM135.606 35.4168C137.169 34.8793 138.747 34.3448 140.341 33.8136L140.973 35.711C139.385 36.2402 137.813 36.7726 136.256 37.308L135.606 35.4168ZM145.169 32.2302C146.753 31.7191 148.352 31.2114 149.966 30.7073L150.562 32.6163C148.954 33.1186 147.361 33.6244 145.783 34.1335L145.169 32.2302ZM154.731 29.2422C156.334 28.7573 157.951 28.2761 159.583 27.7986L160.145 29.7181C158.519 30.1939 156.907 30.6734 155.31 31.1565L154.731 29.2422ZM164.465 26.3936C166.046 25.9464 167.64 25.5028 169.247 25.0629L169.775 26.992C168.173 27.4303 166.585 27.8724 165.01 28.3181L164.465 26.3936ZM174.107 23.7548C175.741 23.3227 177.388 22.8945 179.048 22.4704L179.543 24.4082C177.888 24.8309 176.247 25.2576 174.619 25.6883L174.107 23.7548ZM183.881 21.257C185.488 20.8606 187.107 20.468 188.739 20.0795L189.202 22.0251C187.576 22.4124 185.962 22.8036 184.36 23.1988L183.881 21.257ZM193.67 18.9262C195.313 18.549 196.968 18.1758 198.635 17.807L199.067 19.7597C197.405 20.1275 195.755 20.4994 194.118 20.8755L193.67 18.9262ZM203.479 16.7548C205.104 16.4081 206.742 16.0654 208.39 15.727L208.793 17.6861C207.149 18.0236 205.517 18.3651 203.896 18.7108L203.479 16.7548ZM213.371 14.7244C215.013 14.4002 216.667 14.0802 218.332 13.7645L218.704 15.7295C217.044 16.0443 215.396 16.3633 213.758 16.6865L213.371 14.7244ZM223.216 12.8566C224.854 12.5581 226.503 12.2637 228.163 11.9737L228.507 13.9438C226.852 14.233 225.208 14.5265 223.574 14.8242L223.216 12.8566ZM233.174 11.1165C234.824 10.8403 236.484 10.5683 238.155 10.3007L238.471 12.2755C236.805 12.5424 235.15 12.8136 233.504 13.089L233.174 11.1165ZM243.063 9.53168C244.708 9.27951 246.364 9.03156 248.029 8.7879L248.319 10.7668C246.658 11.0098 245.007 11.2571 243.366 11.5086L243.063 9.53168ZM253.055 8.06998C254.721 7.83771 256.397 7.60974 258.082 7.38618L258.345 9.36882C256.664 9.5918 254.993 9.81917 253.331 10.0508L253.055 8.06998ZM262.999 6.75002C264.648 6.54213 266.305 6.33844 267.971 6.13905L268.209 8.12489C266.547 8.32378 264.894 8.52693 263.25 8.73428L262.999 6.75002ZM272.998 5.55383C274.683 5.3631 276.377 5.17674 278.08 4.99484L278.292 6.98354C276.593 7.16498 274.904 7.35088 273.223 7.54114L272.998 5.55383ZM283.014 4.48311C284.66 4.31735 286.315 4.15575 287.978 3.99838L288.167 5.9895C286.507 6.14648 284.856 6.30769 283.214 6.47305L283.014 4.48311ZM292.995 3.53905C294.675 3.39023 296.364 3.2457 298.062 3.10556L298.226 5.09879C296.533 5.2386 294.848 5.38278 293.171 5.53125L292.995 3.53905ZM303.099 2.70457C304.741 2.57875 306.39 2.457 308.047 2.3394L308.189 4.33438C306.535 4.45172 304.89 4.57318 303.252 4.69873L303.099 2.70457ZM313.042 1.99911C314.715 1.88988 316.396 1.78485 318.085 1.68411L318.204 3.68056C316.519 3.78108 314.842 3.88588 313.173 3.99487L313.042 1.99911ZM323.176 1.39478C324.836 1.30508 326.503 1.21951 328.178 1.13812L328.276 3.13577C326.604 3.21698 324.94 3.30237 323.284 3.39186L323.176 1.39478ZM333.144 0.91011C334.807 0.838196 336.477 0.77037 338.154 0.706711L338.23 2.70528C336.556 2.7688 334.89 2.83647 333.231 2.90825L333.144 0.91011ZM343.209 0.528259C344.901 0.472977 346.601 0.421921 348.308 0.375122L348.363 2.37437C346.659 2.42107 344.963 2.47203 343.274 2.52721L343.209 0.528259ZM353.307 0.250854C354.957 0.214035 356.614 0.181183 358.277 0.152374L358.312 2.15207C356.652 2.18083 354.998 2.21361 353.352 2.25035L353.307 0.250854ZM363.289 0.078064C364.966 0.0573578 366.651 0.0407257 368.342 0.0282135L368.357 2.02817C366.669 2.04063 364.988 2.05724 363.314 2.07791L363.289 0.078064ZM373.437 0.00314331C374.289 0.00105286 375.144 0 376 0V2C375.145 2 374.293 2.00105 373.442 2.00314L373.437 0.00314331ZM376 0C376.869 0 377.734 0.001297 378.596 0.00390625L378.59 2.00389C377.73 2.0013 376.867 2 376 2V0ZM383.725 0.0349731C385.421 0.0504761 387.104 0.0710907 388.773 0.096756L388.743 2.09651C387.078 2.07091 385.399 2.05035 383.707 2.0349L383.725 0.0349731ZM393.741 0.188858C395.383 0.224579 397.012 0.265274 398.627 0.310913L398.571 2.31012C396.96 2.2646 395.335 2.22401 393.697 2.18839L393.741 0.188858ZM403.602 0.468369C405.328 0.528992 407.039 0.595337 408.734 0.667358L408.649 2.66556C406.959 2.59375 405.253 2.52759 403.532 2.46715L403.602 0.468369ZM413.774 0.900314C415.439 0.983566 417.088 1.07242 418.723 1.16675L418.607 3.16344C416.978 3.06938 415.334 2.98082 413.674 2.89781L413.774 0.900314ZM423.58 1.46619C425.287 1.57819 426.976 1.69632 428.649 1.82048L428.501 3.815C426.834 3.69125 425.15 3.57353 423.449 3.4619L423.58 1.46619ZM433.736 2.22083C435.414 2.36053 437.074 2.50647 438.717 2.65852L438.533 4.65002C436.896 4.49854 435.242 4.35313 433.57 4.21393L433.736 2.22083ZM443.595 3.13295C445.265 3.30336 446.916 3.48024 448.549 3.6635L448.326 5.65102C446.7 5.46852 445.055 5.29234 443.392 5.1226L443.595 3.13295ZM453.644 4.26303C455.322 4.46983 456.98 4.68355 458.618 4.90404L458.351 6.88617C456.721 6.66669 455.07 6.45393 453.399 6.24802L453.644 4.26303ZM463.474 5.58568C465.144 5.83 466.793 6.08156 468.421 6.34021L468.107 8.31543C466.488 8.05809 464.847 7.80777 463.185 7.56462L463.474 5.58568ZM473.47 7.17654C475.129 7.46298 476.766 7.75702 478.381 8.0585L478.014 10.0245C476.408 9.72475 474.78 9.43231 473.129 9.14742L473.47 7.17654ZM483.157 8.98502C484.859 9.32782 486.535 9.67915 488.185 10.0388L487.759 11.9929C486.119 11.6356 484.454 11.2864 482.762 10.9456L483.157 8.98502ZM493.112 11.1553C494.729 11.5358 496.319 11.9245 497.884 12.3213L497.393 14.2599C495.839 13.866 494.26 13.48 492.654 13.1021L493.112 11.1553ZM502.765 13.6073C504.425 14.0615 506.054 14.525 507.654 14.9976L507.087 16.9156C505.501 16.4469 503.885 15.9871 502.238 15.5364L502.765 13.6073ZM512.363 16.4424C513.995 16.9621 515.594 17.4917 517.161 18.0307L516.51 19.9219C514.958 19.388 513.374 18.8632 511.756 18.3481L512.363 16.4424ZM521.932 19.7384C523.488 20.3175 525.01 20.9064 526.498 21.5047L525.752 23.3604C524.28 22.7687 522.775 22.186 521.234 21.6127L521.932 19.7384ZM531.237 23.4896C532.793 24.1691 534.31 24.8593 535.789 25.5599L534.932 27.3672C533.473 26.6757 531.975 25.994 530.436 25.3226L531.237 23.4896ZM540.277 27.7785C541.813 28.5702 543.303 29.3736 544.749 30.1879L543.767 31.9305C542.343 31.1285 540.875 30.3368 539.361 29.5561L540.277 27.7785ZM549.015 32.7005C550.5 33.6154 551.934 34.5425 553.317 35.481L552.194 37.1361C550.836 36.2145 549.427 35.3032 547.966 34.4034L549.015 32.7005ZM557.353 38.355C558.752 39.4013 560.093 40.4599 561.379 41.5296L560.099 43.0669C558.841 42.0198 557.527 40.9826 556.155 39.9565L557.353 38.355ZM565.131 44.8275C566.403 46.0087 567.611 47.2013 568.758 48.4037L567.312 49.7846C566.192 48.6115 565.012 47.4471 563.77 46.2927L565.131 44.8275ZM572.129 52.1659C573.231 53.4777 574.265 54.7989 575.235 56.1274L573.62 57.3071C572.677 56.0152 571.67 54.7295 570.597 53.4518L572.129 52.1659ZM578.097 60.3534C579.006 61.8076 579.845 63.2677 580.616 64.731L578.846 65.6634C578.098 64.2436 577.285 62.8263 576.401 61.414L578.097 60.3534ZM582.803 69.2919C583.49 70.8763 584.103 72.4611 584.648 74.0431L582.757 74.6944C582.228 73.1604 581.634 71.6237 580.968 70.0873L582.803 69.2919ZM586.114 78.898C586.545 80.5527 586.907 82.2005 587.205 83.8373L585.237 84.1954C584.948 82.6065 584.597 81.0077 584.179 79.4026L586.114 78.898ZM587.929 88.8533C588.113 90.5611 588.232 92.2522 588.294 93.9221L586.295 93.9961C586.235 92.3712 586.119 90.7268 585.941 89.0672L587.929 88.8533ZM588.311 98.9936C588.26 100.709 588.153 102.395 588 104.048L586.008 103.863C586.158 102.25 586.262 100.606 586.312 98.9343L588.311 98.9936ZM587.381 109.067C587.119 110.772 586.813 112.431 586.473 114.038L584.516 113.624C584.849 112.052 585.148 110.43 585.404 108.764L587.381 109.067ZM585.293 118.952C584.837 120.65 584.352 122.271 583.854 123.804L581.952 123.186C582.44 121.684 582.915 120.096 583.362 118.433L585.293 118.952ZM582.165 128.587C581.505 130.314 580.853 131.876 580.243 133.25L578.415 132.44C579.011 131.095 579.65 129.565 580.297 127.873L582.165 128.587Z" fill="#715F7A"/>
</svg>

<svg width="589" height="140" fill="none" xmlns="http://www.w3.org/2000/svg"><path d="M576 139.5l-.268-11.544 10.131 5.54L576 139.5zM1 116l-.78-.625v-.001l.002-.002.005-.007.02-.025.078-.094a63.994 63.994 0 011.511-1.742l1.487 1.338a60.16 60.16 0 00-1.454 1.675l-.068.083-.016.02-.004.004v.001L1 116zm4.34-6.199a152.306 152.306 0 013.595-3.519l1.376 1.451a150.75 150.75 0 00-3.548 3.473l-1.424-1.405zm7.311-6.944a206.964 206.964 0 013.803-3.325l1.299 1.521a208.407 208.407 0 00-3.767 3.293l-1.335-1.489zm7.698-6.573a244.075 244.075 0 013.992-3.185l1.232 1.576a242.331 242.331 0 00-3.96 3.16l-1.264-1.55zm7.936-6.204a275.07 275.07 0 014.065-2.992l1.17 1.62a271.787 271.787 0 00-4.034 2.972l-1.2-1.6zm8.22-5.937a301.35 301.35 0 014.109-2.809l1.115 1.66a314.68 314.68 0 00-4.082 2.79l-1.142-1.641zm8.378-5.624a325.28 325.28 0 014.19-2.67l1.062 1.695c-1.423.891-2.81 1.776-4.164 2.653l-1.088-1.678zm8.532-5.344a346.93 346.93 0 014.277-2.548l1.012 1.725a343.673 343.673 0 00-4.253 2.533l-1.036-1.71zm8.704-5.1a374.198 374.198 0 014.335-2.42l.963 1.753a367.583 367.583 0 00-4.312 2.406l-.986-1.74zm8.835-4.852a389.233 389.233 0 014.398-2.303l.916 1.777a386.067 386.067 0 00-4.375 2.291l-.94-1.765zm8.917-4.597c1.48-.74 2.985-1.48 4.513-2.22l.871 1.8a385.53 385.53 0 00-4.49 2.21l-.894-1.79zm9.037-4.377a427.092 427.092 0 014.645-2.148l.829 1.821a424.137 424.137 0 00-4.624 2.137l-.85-1.81zm9.165-4.173a441.304 441.304 0 014.641-2.016l.786 1.838c-1.56.668-3.1 1.337-4.62 2.008l-.807-1.83zm9.299-3.979c1.52-.63 3.059-1.26 4.616-1.885l.746 1.855c-1.55.624-3.082 1.25-4.595 1.877l-.767-1.847zm9.342-3.757a485.538 485.538 0 014.687-1.8l.707 1.871a481.377 481.377 0 00-4.667 1.792l-.727-1.863zm9.373-3.543a502.43 502.43 0 014.787-1.727l.669 1.885c-1.606.57-3.196 1.144-4.768 1.72l-.688-1.878zm9.519-3.38a523.608 523.608 0 014.735-1.603l.632 1.897a563.24 563.24 0 00-4.717 1.597l-.65-1.891zm9.563-3.187a536.107 536.107 0 014.797-1.523l.596 1.91a538.608 538.608 0 00-4.779 1.517l-.614-1.904zm9.562-2.988c1.603-.485 3.22-.966 4.852-1.443l.562 1.92c-1.626.475-3.238.954-4.835 1.438l-.579-1.915zm9.734-2.848c1.581-.448 3.175-.891 4.782-1.331l.528 1.929c-1.602.438-3.19.88-4.765 1.326l-.545-1.924zm9.642-2.64a652.48 652.48 0 014.941-1.284l.495 1.938c-1.655.423-3.296.85-4.924 1.28l-.512-1.933zm9.774-2.497a656.14 656.14 0 014.858-1.178l.463 1.946c-1.626.387-3.24.779-4.842 1.174l-.479-1.942zm9.789-2.33a614.14 614.14 0 014.965-1.12l.432 1.953c-1.662.367-3.312.74-4.949 1.115l-.448-1.949zm9.809-2.172c1.625-.347 3.263-.69 4.911-1.028l.403 1.96c-1.644.337-3.276.678-4.897 1.024l-.417-1.956zm9.892-2.03a669.39 669.39 0 014.961-.96l.372 1.964c-1.66.315-3.308.634-4.946.957l-.387-1.962zm9.845-1.868c1.638-.299 3.287-.593 4.947-.883l.344 1.97a667 667 0 00-4.933.88l-.358-1.967zm9.958-1.74c1.65-.277 3.31-.549 4.981-.816l.316 1.974a726.65 726.65 0 00-4.967.814l-.33-1.973zm9.889-1.585c1.645-.252 3.301-.5 4.966-.744l.29 1.979c-1.661.243-3.312.49-4.953.742l-.303-1.977zm9.992-1.462c1.666-.232 3.342-.46 5.027-.684l.263 1.983c-1.681.223-3.352.45-5.014.682l-.276-1.981zm9.944-1.32a795.88 795.88 0 014.972-.61l.238 1.985c-1.662.199-3.315.402-4.959.61l-.251-1.985zm9.999-1.196c1.685-.19 3.379-.377 5.082-.56l.212 1.99a807.48 807.48 0 00-5.069.557l-.225-1.987zm10.016-1.07c1.646-.167 3.301-.328 4.964-.486l.189 1.991c-1.66.157-3.311.319-4.953.484l-.2-1.99zm9.981-.945c1.68-.149 3.369-.293 5.067-.433l.164 1.993c-1.693.14-3.378.284-5.055.432l-.176-1.992zm10.104-.834a882.13 882.13 0 014.948-.366l.142 1.995c-1.654.118-3.299.24-4.937.365l-.153-1.994zm9.943-.706c1.673-.11 3.354-.214 5.043-.315l.119 1.997c-1.685.1-3.362.205-5.031.314l-.131-1.996zm10.134-.604c1.66-.09 3.327-.175 5.002-.257l.098 1.998c-1.672.081-3.336.166-4.992.256l-.108-1.997zm9.968-.485c1.663-.072 3.333-.14 5.01-.203l.076 1.998c-1.674.064-3.34.131-4.999.203L333.144.91zm10.065-.382c1.692-.055 3.392-.106 5.099-.153l.055 2c-1.704.046-3.4.097-5.089.152l-.065-1.999zm10.098-.277c1.65-.037 3.307-.07 4.97-.099l.035 2c-1.66.029-3.314.062-4.96.098l-.045-2zm9.982-.173c1.677-.02 3.362-.037 5.053-.05l.015 2c-1.688.013-3.369.03-5.043.05l-.025-2zm10.148-.075C374.289.001 375.144 0 376 0v2c-.855 0-1.707.001-2.558.003l-.005-2zM376 0c.869 0 1.734.001 2.596.004l-.006 2C377.73 2 376.867 2 376 2V0zm7.725.035c1.696.015 3.379.036 5.048.062l-.03 2a806.803 806.803 0 00-5.036-.062l.018-2zm10.016.154c1.642.036 3.271.076 4.886.122l-.056 2a749.543 749.543 0 00-4.874-.123l.044-2zm9.861.28c1.726.06 3.437.126 5.132.198l-.085 1.999c-1.69-.072-3.396-.138-5.117-.199l.07-1.999zM413.774.9c1.665.084 3.314.172 4.949.267l-.116 1.996a640.497 640.497 0 00-4.933-.265l.1-1.998zm9.806.566c1.707.112 3.396.23 5.069.354l-.148 1.995a591.17 591.17 0 00-5.052-.353l.131-1.996zm10.156.755c1.678.14 3.338.285 4.981.438l-.184 1.991a540.889 540.889 0 00-4.963-.436l.166-1.993zm9.859.912c1.67.17 3.321.347 4.954.53l-.223 1.988a493.62 493.62 0 00-4.934-.528l.203-1.99zm10.049 1.13c1.678.207 3.336.42 4.974.641l-.267 1.982a444.39 444.39 0 00-4.952-.638l.245-1.985zm9.83 1.323a407.2 407.2 0 014.947.754l-.314 1.975c-1.619-.257-3.26-.507-4.922-.75l.289-1.98zm9.996 1.59a367.5 367.5 0 014.911.883l-.367 1.966c-1.606-.3-3.234-.593-4.885-.878l.341-1.97zm9.687 1.809c1.702.343 3.378.694 5.028 1.054l-.426 1.954a318.23 318.23 0 00-4.997-1.047l.395-1.961zm9.955 2.17c1.617.38 3.207.77 4.772 1.166l-.491 1.939c-1.554-.394-3.133-.78-4.739-1.158l.458-1.947zm9.653 2.452c1.66.455 3.289.918 4.889 1.39l-.567 1.919a249.145 249.145 0 00-4.849-1.38l.527-1.929zm9.598 2.835c1.632.52 3.231 1.05 4.798 1.589l-.651 1.89a216.608 216.608 0 00-4.754-1.573l.607-1.906zm9.569 3.296c1.556.58 3.078 1.168 4.566 1.767l-.746 1.855a185.996 185.996 0 00-4.518-1.747l.698-1.875zm9.305 3.752c1.556.68 3.073 1.37 4.552 2.07l-.857 1.807a158.151 158.151 0 00-4.496-2.044l.801-1.833zm9.04 4.289c1.536.791 3.026 1.595 4.472 2.409l-.982 1.742a135.89 135.89 0 00-4.406-2.374l.916-1.777zm8.738 4.921a115.81 115.81 0 014.302 2.781l-1.123 1.655a113.823 113.823 0 00-4.228-2.733l1.049-1.703zm8.338 5.655a99.19 99.19 0 014.026 3.175l-1.28 1.537a96.577 96.577 0 00-3.944-3.11l1.198-1.602zm7.778 6.473a84.087 84.087 0 013.627 3.576l-1.446 1.38a83.333 83.333 0 00-3.542-3.491l1.361-1.465zm6.998 7.338a73.991 73.991 0 013.106 3.961l-1.615 1.18a72.05 72.05 0 00-3.023-3.855l1.532-1.286zm5.968 8.187a68.507 68.507 0 012.519 4.378l-1.77.932a65.892 65.892 0 00-2.445-4.249l1.696-1.06zm4.706 8.939a65.87 65.87 0 011.845 4.751l-1.891.651a64.21 64.21 0 00-1.789-4.607l1.835-.795zm3.311 9.606a67.706 67.706 0 011.091 4.94l-1.968.357a65.585 65.585 0 00-1.058-4.792l1.935-.505zm1.815 9.955c.184 1.708.303 3.4.365 5.07l-1.999.073a70.67 70.67 0 00-.354-4.929l1.988-.214zm.382 10.14a80.93 80.93 0 01-.311 5.055l-1.992-.185a78.6 78.6 0 00.304-4.929l1.999.06zm-.93 10.074a90.229 90.229 0 01-.908 4.971l-1.957-.414c.333-1.572.632-3.194.888-4.86l1.977.303zm-2.088 9.885a97.898 97.898 0 01-1.439 4.852l-1.902-.618c.488-1.502.963-3.09 1.41-4.753l1.931.519zm-3.128 9.635a95.797 95.797 0 01-1.922 4.663l-1.828-.81a95.383 95.383 0 001.882-4.567l1.868.714z" fill="#715F7A"/></svg>
